X:1
T:Sospirava Maria
T:Sospirava Maria
T:Tomaso Cecchino
T:Source : Canti Spirituali a uno, due et tre voci + BC ---Venetia---G.Vincenti---1613. Editor : André Vierendeels (25/10/16).
T:Notes : Original clefs : C1, F4 Figures in BC are notated in original print
T:©
T:©
T:©
T:©
C:Tomaso Cecchino
Z:©
%%score 1 2
L:1/8
Q:1/4=99
M:4/4
K:C
V:1 treble nm="Soprano" snm="S"
V:2 bass nm="MusicXML Part"
V:1
 z2 dd d4- | d2 AA B4 | B4 z2 AA | A6 EE | ^F4 F2 A2 | B3 c d2 d2 | e4 e4 | z2 B2 z2 ^c2 | %8
w: So- spi- ra-|* va Ma- ri-|a, so- spi-|ra- va Ma-|ri- a, ed'|e- ra noi so-|spi- ri,|in- ter-|
 z2 d3 c B2 | c8 | B4 ^c2 d2- | d2 ^c2 d4 | z2 ^G2 A2 E2 | ^F2 G2 A4 | G8 :: z2 G2 A3 E | F3 G E4 | %17
w: rot- ti dal|pian|to'e dai mar-|* ti- ri,|del suo Gie-|su lan- guen-|te.|E pur di|quan- do'in quan-|
 E4 z2 ed | c4 z2 ^GA | B4 B4 | ^c3 c c4 | d6 ^FG | A4 G4 | A6 ^CD | E4 D2 d2 | B4 z2 c2 | %26
w: do, dir s'u-|dia so- spi-|ran- do,|veg- giot- ti|a- ni- ma|mi- a,|a- ni- ma|mi- a, mio|cor, mia|
 ^c2 c2 z2 d2 | ^d4 z2 e2- | e2 A2 ^G4 | ^G4 z2 A2 | ^F4 z2 G2 | E4 z2 E2 | ^F4 z2 ^G2 | A6 B2 | %34
w: vi- ta, mio|sol, mio|_ the- so-|ro, ca-|der lan-|guir mo-|rir ed'|io non|
 c4- cB c/B/c/A/ | B8 :| %36
w: mo- * * * * * *|ro.|
V:2
"^BC" G,4 D,4 |"^#""^#" D,4 G,,4 |"^#" G,,4 D,4 |"^#" A,,8 | D,,4 D,,4 | G,,8 | C,8 | %7
"^#""^#" E,4 A,4 | ^F,4 G,4 | E,4 ^F,4 | G,4 A,2 ^F,2 |"^#" E,4 D,4 | E,4 ^C,4 | D,8 | G,,8 :: %15
"^#" C,4 A,,4 |"^#" D,4 A,,4 |"^#" A,,4 C,4 | F,2 C,D, E,4 | E,8 | A,,8 |"^#" D,2 B,,C, D,4- | %22
 D,4 G,,2 C,B,, |"^#" A,,2 ^F,,G,, A,,4- | A,,4 D,,4 | G,,4 C,4 |"^#" A,,4 D,4 | B,,4 E,4 | %28
 ^C,2 D,2 E,4 | E,4 ^C,4 | D,4 B,,4 |"^#" C,4 A,,4 | D,4 E,4 | F,3 E, D,4 | C,3 B,, A,,4 | G,,8 :| %36

